img/icones/servicos/altofalante-icone.svg

<svg width="24" height="25" viewBox="0 0 24 25" fill="none" xmlns="http://www.w3.org/2000/svg">
<path d="M3 10.461V14.461C3 15.011 3.45 15.461 4 15.461H7L10.29 18.751C10.92 19.381 12 18.931 12 18.041V6.87102C12 5.98102 10.92 5.53102 10.29 6.16102L7 9.46102H4C3.45 9.46102 3 9.91102 3 10.461ZM16.5 12.461C16.5 10.691 15.48 9.17102 14 8.43102V16.481C15.48 15.751 16.5 14.231 16.5 12.461ZM14 4.91102V5.11102C14 5.49102 14.25 5.82102 14.6 5.96102C17.18 6.99102 19 9.52102 19 12.461C19 15.401 17.18 17.931 14.6 18.961C14.24 19.101 14 19.431 14 19.811V20.011C14 20.641 14.63 21.081 15.21 20.861C18.6 19.571 21 16.301 21 12.461C21 8.62102 18.6 5.35102 15.21 4.06102C14.63 3.83102 14 4.28102 14 4.91102Z" fill="url(#paint0_linear_434_226)"/>
<defs>
<linearGradient id="paint0_linear_434_226" x1="12" y1="4.33837" x2="15.3766" y2="19.8448" gradientUnits="userSpaceOnUse">
<stop stop-color="#345EC2"/>
<stop offset="1" stop-color="#113896"/>
</linearGradient>
</defs>
</svg>

<svg width="24" height="25" fill="none" xmlns="http://www.w3.org/2000/svg"><path d="M3 10.461v4c0 .55.45 1 1 1h3l3.29 3.29c.63.63 1.71.18 1.71-.71V6.871c0-.89-1.08-1.34-1.71-.71L7 9.461H4c-.55 0-1 .45-1 1Zm13.5 2a4.5 4.5 0 0 0-2.5-4.03v8.05c1.48-.73 2.5-2.25 2.5-4.02ZM14 4.911v.2c0 .38.25.71.6.85a7.004 7.004 0 0 1 4.4 6.5c0 2.94-1.82 5.47-4.4 6.5-.36.14-.6.47-.6.85v.2c0 .63.63 1.07 1.21.85a8.98 8.98 0 0 0 5.79-8.4c0-3.84-2.4-7.11-5.79-8.4-.58-.23-1.21.22-1.21.85Z" fill="url(#a)"/><defs><linearGradient id="a" x1="12" y1="4.338" x2="15.377" y2="19.845" gradientUnits="userSpaceOnUse"><stop stop-color="#345EC2"/><stop offset="1" stop-color="#113896"/></linearGradient></defs></svg>
